dist/assets/images/contacts/whatsAppIco.svg

<svg width="32" height="32" viewBox="0 0 32 32" fill="none" xmlns="http://www.w3.org/2000/svg">
<g clip-path="url(#clip0_407_4001)">
<path fill-rule="evenodd" clip-rule="evenodd" d="M15.9954 0C7.17484 0 0 7.17685 0 15.9999C0 19.499 1.12843 22.744 3.04667 25.378L1.05306 31.3225L7.20296 29.357C9.7324 31.0313 12.7509 32 16.0046 32C24.8252 32 32 24.8229 32 16.0001C32 7.17713 24.8252 0.000264486 16.0046 0.000264486H15.9954V0ZM11.5286 8.12722C11.2183 7.38418 10.9832 7.35605 10.5132 7.33693C10.3532 7.32764 10.1748 7.31836 9.97709 7.31836C9.36563 7.31836 8.72631 7.49702 8.3407 7.89203C7.87069 8.37173 6.70455 9.49092 6.70455 11.7861C6.70455 14.0813 8.37838 16.3012 8.60396 16.6118C8.8391 16.9218 11.8672 21.7002 16.5688 23.6477C20.2456 25.1714 21.3366 25.0302 22.1734 24.8515C23.3958 24.5882 24.9287 23.6848 25.3143 22.594C25.6999 21.5027 25.6999 20.5714 25.5868 20.3739C25.474 20.1764 25.1635 20.0639 24.6935 19.8284C24.2235 19.5932 21.9382 18.4644 21.5057 18.3139C21.0824 18.1541 20.6782 18.2107 20.3586 18.6622C19.9072 19.2924 19.4654 19.9322 19.1079 20.3177C18.8258 20.6187 18.3648 20.6564 17.9794 20.4963C17.4622 20.2802 16.0142 19.7719 14.2273 18.1823C12.8449 16.9502 11.9046 15.4172 11.6321 14.9563C11.3593 14.4862 11.6039 14.213 11.8199 13.9592C12.0551 13.6675 12.2807 13.4607 12.5158 13.1878C12.751 12.9152 12.8826 12.7739 13.0331 12.454C13.1931 12.1437 13.08 11.8238 12.9672 11.5886C12.8545 11.3534 11.9142 9.05821 11.5286 8.12722Z" fill="#67C15E"/>
</g>
<defs>
<clipPath id="clip0_407_4001">
<rect width="32" height="32" fill="white"/>
</clipPath>
</defs>
</svg>

<svg width="32" height="32" fill="none" xmlns="http://www.w3.org/2000/svg"><g clip-path="url(#clip0_407_4001)"><path fill-rule="evenodd" clip-rule="evenodd" d="M15.995 0C7.175 0 0 7.177 0 16c0 3.499 1.128 6.744 3.047 9.378l-1.994 5.945 6.15-1.966A15.873 15.873 0 0016.005 32C24.825 32 32 24.823 32 16S24.825 0 16.005 0h-.01zM11.53 8.127c-.31-.743-.546-.771-1.016-.79a9.035 9.035 0 00-.536-.019c-.611 0-1.25.179-1.636.574-.47.48-1.636 1.599-1.636 3.894s1.673 4.515 1.899 4.826c.235.31 3.263 5.088 7.965 7.036 3.677 1.523 4.768 1.382 5.604 1.204 1.223-.264 2.756-1.167 3.141-2.258.386-1.091.386-2.023.273-2.22-.113-.198-.424-.31-.893-.546-.47-.235-2.756-1.364-3.188-1.514-.424-.16-.828-.103-1.147.348-.452.63-.894 1.27-1.251 1.656-.282.3-.743.338-1.129.178-.517-.216-1.965-.724-3.752-2.314-1.382-1.232-2.322-2.765-2.595-3.226-.273-.47-.028-.743.188-.997.235-.291.46-.498.696-.771.235-.273.367-.414.517-.734.16-.31.047-.63-.066-.865-.113-.236-1.053-2.53-1.438-3.462z" fill="#67C15E"/></g><defs><clipPath id="clip0_407_4001"><path fill="#fff" d="M0 0h32v32H0z"/></clipPath></defs></svg>
